X: 188
T:De profundis clamavi / A custodia
N: Derived from Jos1512-De_profundis_clamavi.krn
C: Josquin des Prez
%%abc-version 2.0
%%abcx-abcm2ps-target-version 5.9.1 (29 Sep 2008)
%%abc-creator hum2abc beta
%%abcx-conversion-date 2019/02/12 16:15:47
%%abc-edited-by Jesse Rodin
%%abc-edited-by Will Watson 15/12/2011
%%abcx-initial-encoding-date 2011/12/15/
%%humdrum-veritas 2870576586
%%humdrum-veritas-data 1340489918
%%linebreak <none>
%%barnumbers 0
L: 1/4
M: 2/1
Q: 1/2=120
%%staves [1 2 3 4]
V: 1 clef=treble
V: 2 clef=treble-8
V: 3 clef=treble-8
V: 4 clef=bass
K: C
[V:1] z8 | 
[V:2] d6d2 | 
[V:3] z8 | 
[V:4] z8 | 
[V:1] z4G4- | 
[V:2] d4G4 | 
[V:3] z8 | 
[V:4] z8 | 
[V:1] G2G2G4 | 
[V:2] c3Bcde2- | 
[V:3] z8 | 
[V:4] z8 | 
[V:1] C4F3E | 
[V:2] edcBA2d2- | 
[V:3] z8 | 
[V:4] z8 | 
[V:1] FGA3GFE | 
[V:2] d2c2d3c | 
[V:3] z8 | 
[V:4] z8 | 
[V:1] D2G4^F2 | 
[V:2] B2G2A4 | 
[V:3] z8 | 
[V:4] z8 | 
[V:1] G2D4D2 | 
[V:2] G2B4B2 | 
[V:3] z8 | 
[V:4] G,6G,2 | 
[V:1] D2D2E3D | 
[V:2] B2B2c3d | 
[V:3] z4g4- | 
[V:4] G,4C,4- | 
[V:1] C2E3DEF | 
[V:2] e2c3Bcd | 
[V:3] g2g2g4 | 
[V:4] C,2C,2C,4 | 
[V:1] G2A3GAB | 
[V:2] e2f2c4 | 
[V:3] c4f4 | 
[V:4] C,2F,3E,F,G, | 
[V:1] c2A2B2GA | 
[V:2] z2c2B2c2 | 
[V:3] e2f2d2e2 | 
[V:4] A,2F,2G,2C2 | 
[V:1] Bcd3cc2- | 
[V:2] G2g4f2 | 
[V:3] d2B2c4 | 
[V:4] B,2G,2A,4 | 
[V:1] c2B2c4- | 
[V:2] g4e4- | 
[V:3] d4c4 | 
[V:4] G,4C,4 | 
[V:1] c4z4 | 
[V:2] e4z4 | 
[V:3] z2e2e2e2 | 
[V:4] z2C2C2C2 | 
[V:1] z8 | 
[V:2] z8 | 
[V:3] d4e4 | 
[V:4] B,4C4 | 
[V:1] z8 | 
[V:2] z8 | 
[V:3] f4d2e2- | 
[V:4] D4B,2C2- | 
[V:1] z2c2c2c2 | 
[V:2] z2c2c2c2 | 
[V:3] edg3^f^fe | 
[V:4] CB,A,G,A,4 | 
[V:1] B4c4 | 
[V:2] d4e4 | 
[V:3] g4z4 | 
[V:4] G,4z4 | 
[V:1] d4B2c2- | 
[V:2] f4d2e2- | 
[V:3] z8 | 
[V:4] z8 | 
[V:1] cBAGA4 | 
[V:2] edg4^f2 | 
[V:3] z8 | 
[V:4] z4z2D,2 | 
[V:1] G4z4 | 
[V:2] g4z4 | 
[V:3] z2G2A4 | 
[V:4] E,4F,4 | 
[V:1] z8 | 
[V:2] z8 | 
[V:3] B4c4 | 
[V:4] G,4A,4 | 
[V:1] z8 | 
[V:2] z8 | 
[V:3] d4G4 | 
[V:4] D,4z2D2- | 
[V:1] z8 | 
[V:2] z8 | 
[V:3] z2g3fed | 
[V:4] DCB,A,G,2A,2- | 
[V:1] z8 | 
[V:2] z8 | 
[V:3] c4d4 | 
[V:4] A,B,C4B,2 | 
[V:1] G8 | 
[V:2] e8 | 
[V:3] c8 | 
[V:4] C4C,4 | 
[V:1] G4G4 | 
[V:2] e4e4 | 
[V:3] z2c2c4 | 
[V:4] C,4C,4 | 
[V:1] A6A2 | 
[V:2] f6f2 | 
[V:3] c4c2c2 | 
[V:4] F,6F,2 | 
[V:1] A2A2A4 | 
[V:2] f2f2f4 | 
[V:3] c2c2c2c2 | 
[V:4] F,2F,2F,4 | 
[V:1] G3FG2A2- | 
[V:2] e3de2f2- | 
[V:3] c4c4 | 
[V:4] C,2C3B,A,G, | 
[V:1] AGc4B2 | 
[V:2] fedcd4 | 
[V:3] z4z2g2- | 
[V:4] F,2A,2G,4 | 
[V:1] c8 | 
[V:2] c4z4 | 
[V:3] g2g2e2e2 | 
[V:4] z2C4C2 | 
[V:1] z8 | 
[V:2] z8 | 
[V:3] f4d4 | 
[V:4] A,2A,2B,4 | 
[V:1] z8 | 
[V:2] z8 | 
[V:3] g6f2 | 
[V:4] G,4C4- | 
[V:1] z8 | 
[V:2] z8 | 
[V:3] e2d2c4 | 
[V:4] C2B,2A,2G,2 | 
[V:1] z8 | 
[V:2] z8 | 
[V:3] d6G2 | 
[V:4] F,4G,4- | 
[V:1] z2E4E2 | 
[V:2] z2c4c2 | 
[V:3] G8 | 
[V:4] G,2C,2C,4- | 
[V:1] E2E2G4 | 
[V:2] c2c2B4 | 
[V:3] z8 | 
[V:4] C,4z4 | 
[V:1] A4c3B | 
[V:2] A2f4c2 | 
[V:3] z8 | 
[V:4] z8 | 
[V:1] A2G2A2G2- | 
[V:2] d2e2f2e2- | 
[V:3] z8 | 
[V:4] z8 | 
[V:1] G2F2E4- | 
[V:2] e2d2e4 | 
[V:3] z8 | 
[V:4] z4z2C2- | 
[V:1] E4z4 | 
[V:2] z8 | 
[V:3] z4z2g2- | 
[V:4] C2C2B,2B,2 | 
[V:1] z2c4c2 | 
[V:2] z8 | 
[V:3] g2g2f2f2 | 
[V:4] C2C2A,4 | 
[V:1] B2B2c2c2 | 
[V:2] z2g4g2 | 
[V:3] g2g2e4 | 
[V:4] G,4C,4 | 
[V:1] A4G4 | 
[V:2] f2f2g2g2 | 
[V:3] d4z4 | 
[V:4] D,4E,3F, | 
[V:1] z2G2A2B2 | 
[V:2] e4d4 | 
[V:3] z4z2g2 | 
[V:4] G,2E,2F,2G,2 | 
[V:1] c2BAB4 | 
[V:2] z2c2d2e2 | 
[V:3] e2f2g4 | 
[V:4] A,4G,4 | 
[V:1] A4z4 | 
[V:2] f2ede2e2 | 
[V:3] c4z2c2 | 
[V:4] A,2F,2G,2A,2 | 
[V:1] z8 | 
[V:2] d2a4gf | 
[V:3] d2f4ed | 
[V:4] _B,2A,G,F,2G,2 | 
[V:1] z2A2A2A2 | 
[V:2] e2f2e4 | 
[V:3] c2d4^c2 | 
[V:4] A,2D,2A,4 | 
[V:1] F3GA2D2- | 
[V:2] z2d2f3g | 
[V:3] d2f3ga2 | 
[V:4] D,8 | 
[V:1] DEFGA3B | 
[V:2] a2defga2- | 
[V:3] d2a3gf2 | 
[V:4] z2D,3E,F,G, | 
[V:1] c2d4^c2 | 
[V:2] a2g2a4 | 
[V:3] e2d2e4 | 
[V:4] A,3_B,A,4 | 
[V:1] d4z2B2 | 
[V:2] f4z2g2 | 
[V:3] d4z2d2 | 
[V:4] D,4z2G,2 | 
[V:1] A2B2c2A2 | 
[V:2] f2g2e2f2 | 
[V:3] d2d2c2c2 | 
[V:4] D,2G,2A,2F,2 | 
[V:1] c4B4 | 
[V:2] e3fg4 | 
[V:3] c4d4 | 
[V:4] A,4G,4 | 
[V:1] z2B2A2B2 | 
[V:2] z2g2f2g2 | 
[V:3] z2d2d2d2 | 
[V:4] z2G,2D,2G,2 | 
[V:1] c2A2c3c | 
[V:2] e2f2e3f | 
[V:3] c2c2c2c2 | 
[V:4] A,2F,2A,2A,2 | 
[V:1] B8- | 
[V:2] g8 | 
[V:3] d8- | 
[V:4] G,8- | 
[V:1] B8 | 
[V:2] z4z2g2 | 
[V:3] d8 | 
[V:4] G,8 | 
[V:1] z2d2d2d2 | 
[V:2] g2g2f2g2 | 
[V:3] z8 | 
[V:4] z8 | 
[V:1] c2d2e2d2- | 
[V:2] a2g4fe | 
[V:3] z8 | 
[V:4] z8 | 
[V:1] d2cBA2B2 | 
[V:2] d2e2f2d2 | 
[V:3] z8 | 
[V:4] z8 | 
[V:1] c2A2G2A2- | 
[V:2] c2d2e2f2- | 
[V:3] z8 | 
[V:4] z8 | 
[V:1] AGFEF4 | 
[V:2] fee4d2 | 
[V:3] z8 | 
[V:4] z8 | 
[V:1] E8 | 
[V:2] e4z4 | 
[V:3] z4z2g2 | 
[V:4] z2C2C2C2 | 
[V:1] z8 | 
[V:2] z8 | 
[V:3] g2g2f2g2 | 
[V:4] B,2C2D2C2- | 
[V:1] z8 | 
[V:2] z8 | 
[V:3] a2g4fe | 
[V:4] C2B,A,G,4 | 
[V:1] z8 | 
[V:2] z8 | 
[V:3] d4d2d2 | 
[V:4] G,2G,2F,2G,2 | 
[V:1] z8 | 
[V:2] z8 | 
[V:3] c2d3Bc2- | 
[V:4] E,2D,E,F,G,A,2- | 
[V:1] z4z2A2 | 
[V:2] z8 | 
[V:3] cBAGA4 | 
[V:4] A,G,G,4^F,2 | 
[V:1] B2c2d4 | 
[V:2] z4z2d2 | 
[V:3] G8 | 
[V:4] G,4z4 | 
[V:1] c2A2B2c2 | 
[V:2] e2f2g4 | 
[V:3] z4z2G2 | 
[V:4] z8 | 
[V:1] d4c2c2 | 
[V:2] f2d2e2f2 | 
[V:3] A2B2c3d | 
[V:4] D,4A,4 | 
[V:1] B4z4 | 
[V:2] g4f2f2 | 
[V:3] e2d3ef2 | 
[V:4] G,4D4 | 
[V:1] z2c2d2B2 | 
[V:2] e4z2d2 | 
[V:3] g2a3g/f/g2 | 
[V:4] C2A,2B,4 | 
[V:1] c2A2B4 | 
[V:2] e2c2g4 | 
[V:3] c2f2e2d2- | 
[V:4] A,4G,4 | 
[V:1] c4d4 | 
[V:2] z2G4F2 | 
[V:3] dcc4B2 | 
[V:4] F,2E,2D,4 | 
[V:1] e3dcBc2- | 
[V:2] G2c3de2 | 
[V:3] c3de2A2- | 
[V:4] C,8 | 
[V:1] c2BAG4 | 
[V:2] A4B3c | 
[V:3] ABcde4 | 
[V:4] F,4E,4 | 
[V:1] F3EFGA2- | 
[V:2] ded4cB | 
[V:3] z2A2A3G | 
[V:4] D,3C,D,E,F,2- | 
[V:1] A2G2F2ED | 
[V:2] AGc4B2 | 
[V:3] F2E2F4 | 
[V:4] F,E,C,2D,4 | 
[V:1] E2C2E3F | 
[V:2] c2e3fg2- | 
[V:3] G4c3d | 
[V:4] C,8- | 
[V:1] G6E2 | 
[V:2] g2c2e3f | 
[V:3] e6c2 | 
[V:4] C,8- | 
[V:1] E8 ||  
[V:2] g8 ||  
[V:3] c8 ||  
[V:4] C,8 ||  
[V:1]  [K:C] [M:2/1]z8 | 
[V:2]  [K:C] [M:2/1]G6G2 | 
[V:3]  [K:C] [M:2/1]z8 | 
[V:4]  [K:C] [M:2/1]z8 | 
[V:1] z8 | 
[V:2] A2A2B4 | 
[V:3] z8 | 
[V:4] z8 | 
[V:1] G6G2 | 
[V:2] c4B2c2- | 
[V:3] z8 | 
[V:4] z8 | 
[V:1] A2A2B4 | 
[V:2] c2BAG4 | 
[V:3] z8 | 
[V:4] z8 | 
[V:1] c4B2c2- | 
[V:2] A4G2E2 | 
[V:3] z8 | 
[V:4] z8 | 
[V:1] c2BAG4 | 
[V:2] F4E4 | 
[V:3] z8 | 
[V:4] z8 | 
[V:1] A4G2E2 | 
[V:2] z2A2B2c2 | 
[V:3] z8 | 
[V:4] z8 | 
[V:1] F4E4 | 
[V:2] d4c4 | 
[V:3] z8 | 
[V:4] z8 | 
[V:1] z2A2B2c2 | 
[V:2] f4e2e2 | 
[V:3] z8 | 
[V:4] z8 | 
[V:1] d4c4 | 
[V:2] d4z2a2- | 
[V:3] z8 | 
[V:4] z8 | 
[V:1] f4e2e2 | 
[V:2] a2f2g2a2 | 
[V:3] z8 | 
[V:4] z8 | 
[V:1] d3cd2e2- | 
[V:2] f2g3fed | 
[V:3] z8 | 
[V:4] z8 | 
[V:1] edc3BB2 | 
[V:2] c4d4 | 
[V:3] z4G4 | 
[V:4] z8 | 
[V:1] c8 | 
[V:2] c4z4 | 
[V:3] A4c4 | 
[V:4] z4C,4 | 
[V:1] z8 | 
[V:2] z8 | 
[V:3] B4A2d2- | 
[V:4] D,4F,4 | 
[V:1] z8 | 
[V:2] z8 | 
[V:3] d2c2B3A/G/ | 
[V:4] E,4D,2G,2- | 
[V:1] z8 | 
[V:2] z8 | 
[V:3] A4G2g2- | 
[V:4] G,2F,2E,3D,/C,/ | 
[V:1] z8 | 
[V:2] z8 | 
[V:3] g2f2e3d/c/ | 
[V:4] D,4C,2C2- | 
[V:1] z8 | 
[V:2] z8 | 
[V:3] d4c4 | 
[V:4] C2B,2A,3G,/F,/ | 
[V:1] z8 | 
[V:2] z8 | 
[V:3] z2d4c2 | 
[V:4] G,4F,4 | 
[V:1] z8 | 
[V:2] z8 | 
[V:3] B3A/G/A4 | 
[V:4] z2G,4F,2 | 
[V:1] z8 | 
[V:2] z8 | 
[V:3] G2g4f2 | 
[V:4] E,3D,/C,/D,4 | 
[V:1] z8 | 
[V:2] z8 | 
[V:3] e3d/c/d4 | 
[V:4] C,2C4B,2 | 
[V:1] z8 | 
[V:2] z8 | 
[V:3] c4z2d2- | 
[V:4] A,3G,/F,/G,4 | 
[V:1] z8 | 
[V:2] z8 | 
[V:3] d2c2B3A/G/ | 
[V:4] F,4z2G,2- | 
[V:1] z8 | 
[V:2] z8 | 
[V:3] A4G2c2- | 
[V:4] G,2F,2E,3D,/C,/ | 
[V:1] z8 | 
[V:2] z8 | 
[V:3] c2B2c4- | 
[V:4] D,4C,4 | 
[V:1] G4G4 | 
[V:2] e4e4 | 
[V:3] c4z4 | 
[V:4] z4C,4 | 
[V:1] G2G2G2G2 | 
[V:2] e2e2e2e2 | 
[V:3] c4c4 | 
[V:4] C,4C,2C,2 | 
[V:1] G8 | 
[V:2] e8 | 
[V:3] c2c2c2c2 | 
[V:4] C,2C,2C,4 | 
[V:1] A4B4 | 
[V:2] f3ed2g2 | 
[V:3] c4B2d2 | 
[V:4] F,4G,4 | 
[V:1] c3Bcde2- | 
[V:2] e2a4gf | 
[V:3] c2A2e3d | 
[V:4] A,3G,A,B,C2- | 
[V:1] e2d2c2BA | 
[V:2] edg4^f2 | 
[V:3] c2B2c4 | 
[V:4] CB,G,2A,4 | 
[V:1] B4z2B2 | 
[V:2] g8- | 
[V:3] d8 | 
[V:4] G,8- | 
[V:1] B2B2d4 | 
[V:2] g8- | 
[V:3] z2B2B2B2 | 
[V:4] G,8- | 
[V:1] B4d3c | 
[V:2] g8 | 
[V:3] d4B4 | 
[V:4] G,8 | 
[V:1] B2A2G2c2 | 
[V:2] z8 | 
[V:3] d3cB2A2 | 
[V:4] z8 | 
[V:1] B2A3^GG^F/G/ | 
[V:2] z4d4 | 
[V:3] G2c2B4 | 
[V:4] z8 | 
[V:1] A8 | 
[V:2] e4f4 | 
[V:3] A8 | 
[V:4] z4D,4 | 
[V:1] z8 | 
[V:2] g3fd2f2 | 
[V:3] z8 | 
[V:4] E,4F,4 | 
[V:1] z8 | 
[V:2] e2d2f4 | 
[V:3] z4d4 | 
[V:4] G,3F,D,2F,2 | 
[V:1] z8 | 
[V:2] g2a3gf2 | 
[V:3] e2f3edc | 
[V:4] E,2D,2F,4 | 
[V:1] z2A2c2d2 | 
[V:2] e2f3ed2- | 
[V:3] B2c3BA2- | 
[V:4] G,2A,3G,F,2 | 
[V:1] e4f4 | 
[V:2] d2^c2d4- | 
[V:3] A2G2A4- | 
[V:4] E,4D,4- | 
[V:1] f4e4- | 
[V:2] d4G4 | 
[V:3] A4c4- | 
[V:4] D,4C,4- | 
[V:1] e2e2e4 | 
[V:2] z2g2g2g2 | 
[V:3] c8 | 
[V:4] C,4C,4 | 
[V:1] z2d3cBA | 
[V:2] g2g2g4- | 
[V:3] B4GABc | 
[V:4] G,4G,4- | 
[V:1] B2GABcd2- | 
[V:2] g4z2g2- | 
[V:3] d2e2d2B2 | 
[V:4] G,2G,2G,4 | 
[V:1] dcc4B2 | 
[V:2] g2f2g4 | 
[V:3] c4d4 | 
[V:4] A,4G,4 | 
[V:1] c8- | 
[V:2] e8- | 
[V:3] c4z2c2 | 
[V:4] C,8- | 
[V:1] c4z2G2 | 
[V:2] e4z2e2 | 
[V:3] c2c2c4 | 
[V:4] C,4z2C,2 | 
[V:1] A3GF2E2 | 
[V:2] f3ga2g2 | 
[V:3] z2c2c2c2 | 
[V:4] F,3E,F,2C,2 | 
[V:1] F3GA2G2 | 
[V:2] a3gf2e2 | 
[V:3] c2c2c4- | 
[V:4] F,3E,F,2C,2 | 
[V:1] A2G3^FFE/F/ | 
[V:2] f2e2d4 | 
[V:3] c2B2A4 | 
[V:4] F,2G,2D,4 | 
[V:1] G4z4 | 
[V:2] z2d2e2f2 | 
[V:3] G4z4 | 
[V:4] E,2G,3F,D,2 | 
[V:1] z8 | 
[V:2] g4f4 | 
[V:3] z2G2A2B2 | 
[V:4] E,4D,4 | 
[V:1] z8 | 
[V:2] e2a4g2 | 
[V:3] c4B4 | 
[V:4] z2C,2D,2E,2 | 
[V:1] z8 | 
[V:2] a4g4 | 
[V:3] A2d4c2 | 
[V:4] F,4E,4 | 
[V:1] z8 | 
[V:2] f2e2d4- | 
[V:3] d2B3GA2 | 
[V:4] D,2G,4F,2 | 
[V:1] z8 | 
[V:2] d2e2f4 | 
[V:3] B2c4B2 | 
[V:4] G,2E,2D,4 | 
[V:1] z2G2A2B2 | 
[V:2] e8 | 
[V:3] c3BA2G2 | 
[V:4] C,4z4 | 
[V:1] c4B4 | 
[V:2] z2c2d2e2 | 
[V:3] A4G4 | 
[V:4] z8 | 
[V:1] A2d4c2 | 
[V:2] f4e4 | 
[V:3] d4A4 | 
[V:4] z8 | 
[V:1] d3cB2A2 | 
[V:2] d2g4f2 | 
[V:3] B3ABcd2- | 
[V:4] z2G,2G,2D,2 | 
[V:1] B2GABcd2 | 
[V:2] g3fe2d2 | 
[V:3] dcBAG2g2- | 
[V:4] G,2G,2G,4 | 
[V:1] c2e4d2 | 
[V:2] e2cdefg2- | 
[V:3] gfedc2B2 | 
[V:4] C,2C3B,G,2 | 
[V:1] c3B/A/B4- | 
[V:2] g2^f2g4- | 
[V:3] c4d4 | 
[V:4] A,4G,4 | 
[V:1] B4z2G2 | 
[V:2] g8 | 
[V:3] G4z4 | 
[V:4] z2G,2G,2G,2 | 
[V:1] G2G2c4 | 
[V:2] e8 | 
[V:3] z8 | 
[V:4] C4z2C2- | 
[V:1] z2c3BA2 | 
[V:2] z8 | 
[V:3] z8 | 
[V:4] CB,A,2G,2C2- | 
[V:1] G2c3BA2 | 
[V:2] z8 | 
[V:3] z8 | 
[V:4] CB,A,2G,2F,2 | 
[V:1] G2F2E2A2- | 
[V:2] z8 | 
[V:3] z8 | 
[V:4] E,2A,3G,F,2 | 
[V:1] AGF2E2A2- | 
[V:2] z8 | 
[V:3] z8 | 
[V:4] E,2A,3G,F,2 | 
[V:1] AGF2E2D2 | 
[V:2] z8 | 
[V:3] z8 | 
[V:4] E,2D,2C,2G,2 | 
[V:1] C4D4 | 
[V:2] z8 | 
[V:3] z8 | 
[V:4] A,G,C4B,2 | 
[V:1] C8 | 
[V:2] z8 | 
[V:3] g4a2g2- | 
[V:4] C4z4 | 
[V:1] z8 | 
[V:2] z8 | 
[V:3] g2e2f2g2 | 
[V:4] G,4A,2G,2- | 
[V:1] z8 | 
[V:2] g4a2g2- | 
[V:3] e4z4 | 
[V:4] G,2E,2F,2G,2 | 
[V:1] G4A2G2- | 
[V:2] g2e2f2g2 | 
[V:3] z8 | 
[V:4] E,4z4 | 
[V:1] G2E2F2G2 | 
[V:2] e4z4 | 
[V:3] z4z2e2- | 
[V:4] C4D2C2- | 
[V:1] E4z2c2- | 
[V:2] z4z2c2 | 
[V:3] e2c2d2e2 | 
[V:4] C2A,2B,2C2 | 
[V:1] c2A2B2c2 | 
[V:2] e2f2g2e2 | 
[V:3] c4z2c2- | 
[V:4] A,4z2A,2- | 
[V:1] A2c2B2A2- | 
[V:2] f2a2g2f2- | 
[V:3] c2A2B2c2 | 
[V:4] A,2F,2G,2A,2 | 
[V:1] AGG4^F2 | 
[V:2] fedcd3c | 
[V:3] d2B2A4 | 
[V:4] F,2G,2D,4 | 
[V:1] GABcd2e2- | 
[V:2] B2G2g3f | 
[V:3] G2g3fed | 
[V:4] G,8 | 
[V:1] edf3edc | 
[V:2] e2a3gfe | 
[V:3] c4A4 | 
[V:4] A,4F,4 | 
[V:1] BGg3fe2- | 
[V:2] d4g4 | 
[V:3] B8 | 
[V:4] G,8 | 
[V:1] edc4BA | 
[V:2] e4f4 | 
[V:3] c8 | 
[V:4] A,8 | 
[V:1] B8 |]  
[V:2] g8 |]  
[V:3] d8 |]  
[V:4] G,8 |]  



